X: 332
M: C
L: 1/8
K: Amix
V: 1
e |\
|: e |\
a2(.e.a) cA af | g2(.d.g) BG dB |\
cedf egfa | (a/g/f/e/) (.f.d) e2A :|
V: 2 clef=bass middle=d
z |\
a2a2 a2a2 | g2g2 g2g2 |\
a2a2 a2a2 | a2a2 a2a :|
|: z |\
a2a2 a2a2 | g2g2 g2g2 |\
a2a2 a2a2 | a2a2 a2a :|

